X: 5
T:Butterfly, The
M:9/8
L:1/8
C:Tommy Potts
R:Slip Jig
K:EMin
B2E G2E F3|B2E G2E FED|B2E G2E F3|B2d d2B AFD|!
B2E G2E F3|B2E G2E FED|B2E G2E F3|B2d d2B AFD|]!
B2c e2f g3|B2c g2e dBA|B2c e2f g2a|b2a g2e dBA|!
B2c e2f g3|B2c g2e dBA|B2c e2f g2a|b2a g2e dBA|]!
B2E B2A G2A|B3 BAB dBA|B2E B2A G2A|B2d g2e dBA|!
B2E B2A G2A|B3 BAB dBA|B2E B2A G2A|B2d g2e dBA|]!
